icons/lines/music-play.svg

<svg xmlns="http://www.w3.org/2000/svg" width="24" height="24" viewBox="0 0 24 24" fill="none" stroke="currentColor" stroke-width="2" stroke-linecap="round" stroke-linejoin="round" >
  <path d="M5.4796 18.4901V15.5701C5.4796 14.6001 6.2396 13.73 7.3196 13.73C8.2896 13.73 9.15959 14.4901 9.15959 15.5701V18.3801C9.15959 20.3301 7.53959 21.9501 5.58959 21.9501C3.63959 21.9501 2.01958 20.3201 2.01958 18.3801V12.22C1.90958 6.60003 6.34959 2.05005 11.9696 2.05005C17.5896 2.05005 22.0196 6.60005 22.0196 12.11V18.2701C22.0196 20.2201 20.3996 21.8401 18.4496 21.8401C16.4996 21.8401 14.8796 20.2201 14.8796 18.2701V15.4601C14.8796 14.4901 15.6396 13.6201 16.7196 13.6201C17.6896 13.6201 18.5596 14.3801 18.5596 15.4601V18.4901"/>
  <path d="M15.53 9.11999H14.72C14.5 9.11999 14.29 9.25 14.19 9.44L13.44 10.94C13.33 11.16 13.02 11.16 12.91 10.94L11.07 7.27002C10.96 7.06002 10.66 7.05001 10.55 7.26001L9.70996 8.80999C9.60996 8.99999 9.40997 9.11999 9.18997 9.11999H8.45996"/>
  </svg>

<svg xmlns="http://www.w3.org/2000/svg" width="24" height="24" viewBox="0 0 24 24" fill="none" stroke="currentColor" stroke-width="2" stroke-linecap="round" stroke-linejoin="round">
  <path d="M15.53 9.12h-.81a.61.61 0 0 0-.53.32l-.75 1.5a.295.295 0 0 1-.53 0l-1.84-3.67a.293.293 0 0 0-.52-.01l-.84 1.55a.59.59 0 0 1-.52.31h-.73" />
  <path d="M5.48 18.49v-2.92a1 1 0 1 1 3.68 0v2.81c0 1.95-1.62 3.57-3.57 3.57s-3.57-1.63-3.57-3.57v-6.16a10 10 0 0 1 9.95-10.17c5.62 0 10.05 4.55 10.05 10.06v6.16c0 1.95-1.62 3.57-3.57 3.57s-3.57-1.62-3.57-3.57v-2.81a1 1 0 0 1 3.68 0v3.03" />
</svg>
